X:451
T:Tug Argan Gap 
C:Joe Buchanan's Scottish Tome - Page 073.0
I:073 0
R:Pipe March
Z:Carl Allison
M:6/8
K:D
L:1/8
a|"D"f<af d2 "A"f|"D"f>ga "Bm"a>ef|"Em"g3 c2 "A"e|"C#"A>ce "A"e>f"A7"g|
"D"f<af d2 "A"f|"D"f>ga "Bm"a>ef|"Em"g2 A "A7"f>ge|"D"d3 d2 :|
(f>g)|"D"a3 "A"f3|"D"A>da "A"f>ed|"Em"g3 "A"e3|"A"A>ce "C#"e>f"A7"g|
"D"a3 "A"f3 |"D"A>da "Bm"f>ed|"Em"g2 A "A7"f>ge|"D"d3 d2 :|
a|"D"A>df "A"f3|"D"A>da "A"f>ed|"Em"g>ee "Em"e2 g|"Em"e<ge "A7"c2 a|
"D"A>df "A"f3|"D"A>da "Bm"f>ed|"Em"g2 "A7"Af>ge|"D"d3 d2 :|
(f<g)|"D"a>ff "A"f2 a|"D"(f<a)f "Bm"d>ef|"Em"g>ee "Em"e2 g|"Em"e<ge "A7"c>BA|
"D"a>ff "D"f2 a|"D"(f<a)f "Bm"d>ef|"Em"g2 A "A7"f>ge|"D"d3 d2 :|
"D"a>ff "A"f2 a|"D"(f<a)f "Bm"d>ef|"Em"g>ee "Em"e2 g|"Em"e<ge "A7"c2 a2|
"D"A>df "A"f>ed | "D"d>cB A>ef | "Em"g2 A "A7"f>ge | "D"d3 d2 |]

